X:498
T:Lord MacDonald's
R:Reel
C:Sir Alexander Macdonald
B:The Athole Collection
M:C|
L:1/8
K:G
B/c/|d3e dBg2|dBg2 aAAB|d^cde dBgB|A/B/c BA BGG:|
B|DGBG AGBG|DGBG AGEA|DGBG AGBG|DEDC B,G,G,G|
DGBG AGBG|DGBG AGEB|cBAG GFED|EFGA BGG||
|:B/c/|d3e dBg2|g2fg aAAB|d^cde dBgB|A/B/c BA BGG:|
g|dgbg agbg|dgbg aeeg|dgbg agbg|dedc BGGg|dgbg agbg|
dgbg aeea|bagf gfed|efga bgg||

